packages/core/src/svgs/tokens/branded/LUNA.svg

<svg width="24" height="24" viewBox="0 0 24 24" fill="none" xmlns="http://www.w3.org/2000/svg">
<path d="M11.4452 22C16.3544 22 20.3342 18.0203 20.3342 13.1111C20.3342 8.20193 16.3544 4.22226 11.4452 4.22226C6.53607 4.22226 2.5564 8.20193 2.5564 13.1111C2.5564 18.0203 6.53607 22 11.4452 22Z" fill="#F2E373"/>
<path d="M14.2229 2C13.4784 3.1111 12.0395 3.88333 11.045 4.22777C9.79343 4.28398 8.56789 4.60412 7.4487 5.16722C6.32952 5.7303 5.34201 6.52363 4.55095 7.49515C3.75988 8.46667 3.18312 9.59446 2.85849 10.8045C2.53387 12.0146 2.46872 13.2797 2.6673 14.5166C3.4673 16.961 5.1284 18.6278 7.4173 18.7555C9.80613 18.8944 12.1339 18.0389 13.2228 15.411C14.1006 13.3 15.645 12.6833 16.3061 12.5556H21.445L20.195 11.6667C18.3451 10.0833 15.4839 10.2611 14.7284 10.9167C14.0757 11.4776 13.2635 11.8195 12.4061 11.8945C9.56722 11.8945 9.3173 9.74443 9.3173 9.23888V9.18332C9.31172 8.60555 9.30058 6.94444 11.9673 6.05C12.7828 5.81722 13.4835 5.29081 13.9339 4.57222H13.9283C14.4951 3.69444 14.3728 2.46112 14.2229 2Z" fill="url(#paint0_linear_364_13025)"/>
<path d="M18.7117 18.2333C17.702 19.6652 16.2917 20.7667 14.6579 21.3995C13.0241 22.0324 11.2398 22.1682 9.52891 21.7901C7.81818 21.412 6.2573 20.5367 5.04241 19.2743C3.82754 18.0118 3.01284 16.4184 2.70068 14.6945C3.23958 16.2722 4.83957 18.8111 7.82289 18.7555C11.0618 18.7 12.6674 16.6778 13.1007 15.5556C13.5395 14.4444 14.6284 12.9555 16.295 12.5556C15.6118 12.9778 14.3673 14.1389 14.4951 15.5556C14.6451 17.2833 16.0395 18.4278 18.7117 18.2333Z" fill="url(#paint1_linear_364_13025)"/>
<defs>
<linearGradient id="paint0_linear_364_13025" x1="6.55618" y1="5.22006" x2="17.3471" y2="14.3942" gradientUnits="userSpaceOnUse">
<stop stop-color="#F5C859"/>
<stop offset="1" stop-color="#DE3633"/>
</linearGradient>
<linearGradient id="paint1_linear_364_13025" x1="8.32277" y1="16.544" x2="11.4727" y2="22.0496" gradientUnits="userSpaceOnUse">
<stop stop-color="#F3BE56"/>
<stop offset="1" stop-color="#E04437"/>
</linearGradient>
</defs>
</svg>

<svg xmlns="http://www.w3.org/2000/svg" width="24" height="24" fill="none" viewBox="0 0 24 24">
    <path fill="#F2E373" d="M11.445 22a8.889 8.889 0 1 0 0-17.778 8.889 8.889 0 0 0 0 17.778"/>
    <path fill="url(#LUNA__a)" d="M14.223 2c-.745 1.111-2.184 1.883-3.178 2.228a8.89 8.89 0 0 0-8.378 10.289c.8 2.444 2.461 4.11 4.75 4.239 2.39.138 4.717-.717 5.806-3.345.878-2.111 2.422-2.728 3.083-2.855h5.139l-1.25-.89c-1.85-1.583-4.711-1.405-5.467-.75a4.1 4.1 0 0 1-2.322.979c-2.839 0-3.089-2.15-3.089-2.656v-.056c-.005-.577-.016-2.239 2.65-3.133a3.43 3.43 0 0 0 1.967-1.478h-.006c.567-.878.445-2.11.295-2.572"/>
    <path fill="url(#LUNA__b)" d="M18.712 18.233A8.888 8.888 0 0 1 2.7 14.694c.539 1.578 2.139 4.117 5.122 4.062 3.239-.056 4.844-2.078 5.278-3.2.438-1.112 1.527-2.6 3.194-3-.683.422-1.928 1.583-1.8 3 .15 1.727 1.545 2.872 4.217 2.677"/>
    <defs>
        <linearGradient id="LUNA__a" x1="6.556" x2="17.347" y1="5.22" y2="14.394" gradientUnits="userSpaceOnUse">
            <stop stop-color="#F5C859"/>
            <stop offset="1" stop-color="#DE3633"/>
        </linearGradient>
        <linearGradient id="LUNA__b" x1="8.323" x2="11.473" y1="16.544" y2="22.05" gradientUnits="userSpaceOnUse">
            <stop stop-color="#F3BE56"/>
            <stop offset="1" stop-color="#E04437"/>
        </linearGradient>
    </defs>
</svg>
